common/src/main/resources/icons/plugins/resharper/Options/Snail.svg

<svg xmlns="http://www.w3.org/2000/svg" width="16" height="16" data-big="true" viewBox="0 0 24 24"><path fill="#F06292" d="m20.31 8.03.93-3.08c.43-.1.76-.48.76-.95 0-.55-.45-1-1-1s-1 .45-1 1c0 .26.11.5.27.68l-.77 2.58-.77-2.58c.16-.18.27-.42.27-.68 0-.55-.45-1-1-1s-1 .45-1 1c0 .47.33.85.76.95l.93 3.08C17.73 8.18 17 9 17 10v2.25C15.65 9.16 12.63 7 9.11 7 5.19 7 2 10.26 2 14.26c0 1.84.82 3.49 2.1 4.59L2.88 19A1.003 1.003 0 0 0 3 21h16.12c1.04 0 1.88-.84 1.88-1.88v-7.4c.6-.34 1-.98 1-1.72 0-1-.73-1.82-1.69-1.97m-4.71 9.38-3.53.45c.43-.76.73-1.65.73-2.6 0-2.32-1.85-4.2-4.13-4.2-.53 0-1.05.12-1.53.35-.49.25-.7.85-.45 1.34a1 1 0 0 0 1.34.46c.2-.1.42-.15.64-.15 1.18 0 2.13.98 2.13 2.2 0 1.66-1.3 3.01-2.91 3.01-2.14 0-3.89-1.8-3.89-4.01C4 11.36 6.29 9 9.11 9c3.66 0 6.64 3.06 6.64 6.82 0 .54-.06 1.07-.15 1.59"/></svg>

<!--
  - The MIT License (MIT)
  -
  - Copyright (c) 2015-2024 Elior "Mallowigi" Boukhobza
  -
  - Permission is hereby granted, free of charge, to any person obtaining a copy
  - of this software and associated documentation files (the "Software"), to deal
  - in the Software without restriction, including without limitation the rights
  - to use, copy, modify, merge, publish, distribute, sublicense, and/or sell
  - copies of the Software, and to permit persons to whom the Software is
  - furnished to do so, subject to the following conditions:
  -
  - The above copyright notice and this permission notice shall be included in all
  - copies or substantial portions of the Software.
  -
  - THE SOFTWARE IS PROVIDED "AS IS", WITHOUT WARRANTY OF ANY KIND, EXPRESS OR
  - IMPLIED, INCLUDING BUT NOT LIMITED TO THE WARRANTIES OF MERCHANTABILITY,
  - FITNESS FOR A PARTICULAR PURPOSE AND NONINFRINGEMENT. IN NO EVENT SHALL THE
  - AUTHORS OR COPYRIGHT HOLDERS BE LIABLE FOR ANY CLAIM, DAMAGES OR OTHER
  - LIABILITY, WHETHER IN AN ACTION OF CONTRACT, TORT OR OTHERWISE, ARISING FROM,
  - OUT OF OR IN CONNECTION WITH THE SOFTWARE OR THE USE OR OTHER DEALINGS IN THE
  - SOFTWARE.
  -->


<svg data-big="true" xmlns="http://www.w3.org/2000/svg" version="1.1" width="16px" height="16px" viewBox="0 0 24 24">
  <path fill="#F06292"
        d="M20.31 8.03L21.24 4.95C21.67 4.85 22 4.47 22 4C22 3.45 21.55 3 21 3S20 3.45 20 4C20 4.26 20.11 4.5 20.27 4.68L19.5 7.26L18.73 4.68C18.89 4.5 19 4.26 19 4C19 3.45 18.55 3 18 3S17 3.45 17 4C17 4.47 17.33 4.85 17.76 4.95L18.69 8.03C17.73 8.18 17 9 17 10V12.25C15.65 9.16 12.63 7 9.11 7C5.19 7 2 10.26 2 14.26C2 16.1 2.82 17.75 4.1 18.85L2.88 19C2.38 19.06 2 19.5 2 20C2 20.55 2.45 21 3 21L19.12 21C20.16 21 21 20.16 21 19.12V11.72C21.6 11.38 22 10.74 22 10C22 9 21.27 8.18 20.31 8.03M15.6 17.41L12.07 17.86C12.5 17.1 12.8 16.21 12.8 15.26C12.8 12.94 10.95 11.06 8.67 11.06C8.14 11.06 7.62 11.18 7.14 11.41C6.65 11.66 6.44 12.26 6.69 12.75C6.93 13.25 7.53 13.45 8.03 13.21C8.23 13.11 8.45 13.06 8.67 13.06C9.85 13.06 10.8 14.04 10.8 15.26C10.8 16.92 9.5 18.27 7.89 18.27C5.75 18.27 4 16.47 4 14.26C4 11.36 6.29 9 9.11 9C12.77 9 15.75 12.06 15.75 15.82C15.75 16.36 15.69 16.89 15.6 17.41Z"/>
</svg>
